X: 1022
M: 2/4
L: 1/16
K: D
(3ABc |\
d4 c4 | d2dd d2d2 | f2e2d2c2 | d2d2z4 |\
|: FG |\
g2gg g2g2 | g2a2 b4 | a4 cdec | d4 :|
|:[K:G] dedc |\
c4 c4 | c4 A4 |  ^cded cded | G4 z2BB |
f4 g4 | a4 z4 | d2Bc d4 | d2Bc d4 |\
c4 c4 | c4 z4 | g2g2 fgaf | g4 z2 :|

